X:1
T:Anne's Fancy
C:Marcus Turner
O:New Zealand
M:4/4
L:1/8
Q:1/4=180
K:C
V:1 
DE|:"Dm"FAcA "G"BGGB|"Dm"AF (3FFF "C"GECE|"Dm"FAcA "G"BG (3GGG|"Em"BGBc "Dm"d2 DE|
"Dm"FAcA "G"BGGB|"Dm"AF (3FFF "C"GECE|"Dm"FAcA "G"BG (3GGG|[1 "Em"BGBc "Dm"d2 DE:|[2 "Em"BGBc "Dm"d4|
|:d"Dm"cAc d3 e|"F"fgaf "C"gecB|"Am"AB (3cBA "Dm"d3 e|fefg a4|
"Gm"_bg (3ggg "Dm"af (3fff|"C"gfga "Am"gfde|"Dm"(3fed ec "Gm"dcAG|"Am"FdAF "Dm"D4:|